X:296
T:Palestine Song
Z:Jack Campin, http://www.campin.me.uk/
F:Jack Campin's Nine-Note Tunebook
% last edit 03-02-2013
C:Walther von der Vogelweide
M:C
L:1/8
Q:1/4=80
K:DDor
A|D2 D2 F2 F2      |D2      D/E/F/E/     D2 DC |\
  E2 G2 A2 A/G/F   |E2    (3D/C/D/   E/F/E HD2:|
A|A2 c2 c2 AG      |A2      cB           A3  z |\
  A2 cB A2 A/G/F/E/|F2      G/F/E/D/     C3  z |
  D2 A2 A2 GF      |EF/E/ (3D/C/D/   E/F/E HD2|]

